packages/icons/src/svg/sharing-user.svg

<svg xmlns="http://www.w3.org/2000/svg" viewBox="0 0 16 16">
  <g class="tsharing-user-icon-color" fill="#000">
    <path d="M15.079,10.4876003 C13.983,9.28060026 12.117,9.19160026 10.91,10.2876003 L7.559,8.55460026 C7.594,8.34760026 7.623,8.13760026 7.623,7.92060026 C7.623,7.70860026 7.594,7.50460026 7.561,7.30160026 L10.91,5.56960026 C11.47,6.08360026 12.204,6.36560026 12.965,6.35960026 C14.618,6.34360026 15.96,5.01960026 15.999,3.36660026 C16.039,1.67460026 14.7,0.270600261 13.008,0.230600261 C11.315,0.190600261 9.911,1.52960026 9.871,3.22260026 C9.871,3.30560026 9.89,3.38260026 9.895,3.46460026 L6.5,5.21960026 C5.81,4.53360026 4.861,4.10960026 3.811,4.10960026 C1.707,4.10960026 0,5.81560026 0,7.92060026 C0,10.0256003 1.707,11.7326003 3.811,11.7326003 C4.856,11.7326003 5.8,11.3106003 6.488,10.6306003 L9.895,12.3936003 C9.89,12.4736003 9.871,12.5506003 9.871,12.6336003 C9.867,13.3866003 10.129,14.1176003 10.612,14.6956003 C10.642,14.7326003 10.673,14.7686003 10.705,14.8036003 C11.801,16.0096003 13.668,16.0996003 14.875,15.0036003 C16.135,13.8496003 16.266,11.9076003 15.172,10.5946003 C15.142,10.5586003 15.111,10.5226003 15.079,10.4876003"/>
  </g>
  <g class="tsharing-user-chip" fill="#66BDFF">
    <path d="M6.8607,7.92070026 C6.8607,9.60470026 5.4957,10.9697003 3.8117,10.9697003 C2.1277,10.9697003 0.7627,9.60470026 0.7627,7.92070026 C0.7627,6.23670026 2.1277,4.87170026 3.8117,4.87170026 C5.4957,4.87170026 6.8607,6.23670026 6.8607,7.92070026"/>
  </g>
</svg>

<svg xmlns="http://www.w3.org/2000/svg" viewBox="0 0 16 16">
	<path d="M15.079 10.488a2.95 2.95 0 0 0-4.169-.2L7.559 8.555c.035-.207.064-.417.064-.634a3.83 3.83 0 0 0-.062-.62L10.91 5.57c.56.514 1.294.796 2.055.79a3.065 3.065 0 1 0-3.094-3.137c0 .083.019.16.024.242L6.5 5.22a3.811 3.811 0 1 0-2.689 6.513 3.795 3.795 0 0 0 2.677-1.102l3.407 1.763c-.005.08-.024.157-.024.24a3.19 3.19 0 0 0 .834 2.17 2.953 2.953 0 0 0 4.17.2 3.201 3.201 0 0 0 .204-4.516" class="tsharing-user-icon-color"/>
	<path d="M6.86 7.92a3.049 3.049 0 1 1-6.097 0 3.049 3.049 0 0 1 6.098 0" class="tsharing-user-chip" fill="#66BDFF"/>
</svg>
